public/static/lp/darklang.svg

<svg xmlns="http://www.w3.org/2000/svg" width="1340" height="480" fill="none"><circle cx="120" cy="120" r="40" fill="#979aad"/><circle cx="120" cy="120" r="40" fill="#979aad" fill-opacity=".1"/><circle cx="120" cy="240" r="40" fill="#979aad"/><circle cx="120" cy="240" r="40" fill="#979aad" fill-opacity=".1"/><circle cx="260" cy="360" r="40" fill="#979aad"/><circle cx="260" cy="360" r="40" fill="#979aad" fill-opacity=".1"/><path stroke="#979aad" stroke-linecap="round" stroke-width="20" d="m100 330 38.917 29.041a1.007 1.007 0 0 1-.013 1.614C122.303 372.877 117.106 377.438 100 390"/><path stroke="#979aad" stroke-linecap="round" stroke-opacity=".1" stroke-width="20" d="m100 330 38.917 29.041a1.007 1.007 0 0 1-.013 1.614C122.303 372.877 117.106 377.438 100 390"/><rect width="80" height="200" x="220" y="80" fill="#979aad" rx="40"/><rect width="80" height="200" x="220" y="80" fill="#979aad" fill-opacity=".1" rx="40"/><path fill="#979aad" d="M636.758 330V205.84h15.36l1.536 22.784h.768c4.266-7.851 9.386-14.08 15.36-18.688 6.144-4.779 12.8-7.168 19.968-7.168 2.56 0 4.864.256 6.912.768 2.048.341 4.01.939 5.888 1.792l-3.584 16.384c-2.048-.683-3.926-1.195-5.632-1.536-1.536-.341-3.584-.512-6.144-.512-5.291 0-10.838 2.219-16.64 6.656-5.803 4.267-10.923 11.861-15.36 22.784V330h-18.432ZM722.758 330V147.216h18.176V273.68h.768l55.04-67.84h20.736l-41.472 49.664L823.11 330h-20.224l-37.632-61.44-24.32 28.672V330h-18.176ZM864.982 333.072c-4.779 0-8.704-1.024-11.776-3.072-2.902-1.877-5.035-4.693-6.4-8.448-1.366-3.925-2.048-8.704-2.048-14.336v-160h18.432v161.536c0 3.072.597 5.291 1.792 6.656 1.194 1.365 2.56 2.048 4.096 2.048h1.792c.682-.171 1.621-.341 2.816-.512l2.56 14.336c-1.366.512-2.987.939-4.864 1.28-1.707.341-3.84.512-6.4.512ZM934.918 333.072c-6.826 0-12.97-1.365-18.432-4.096-5.461-2.731-9.813-6.656-13.056-11.776-3.242-5.291-4.864-11.605-4.864-18.944 0-13.653 6.144-24.064 18.432-31.232 12.459-7.339 32.086-12.459 58.88-15.36 0-5.461-.768-10.752-2.304-15.872-1.365-5.291-4.01-9.472-7.936-12.544-3.754-3.243-9.216-4.864-16.384-4.864-7.509 0-14.506 1.451-20.992 4.352-6.314 2.901-11.861 5.973-16.64 9.216l-7.424-12.8c3.584-2.389 7.851-4.864 12.8-7.424 4.95-2.56 10.411-4.693 16.384-6.4 5.974-1.707 12.288-2.56 18.944-2.56 9.899 0 17.92 2.133 24.064 6.4 6.315 4.267 10.838 10.155 13.568 17.664 2.902 7.509 4.352 16.299 4.352 26.368V330h-15.36l-1.536-15.104h-.768a106.435 106.435 0 0 1-19.456 12.8c-6.997 3.584-14.421 5.376-22.272 5.376Zm4.864-15.104c6.315 0 12.288-1.451 17.92-4.352 5.632-3.072 11.691-7.424 18.176-13.056v-36.352c-14.677 1.707-26.282 4.096-34.816 7.168-8.533 2.901-14.677 6.485-18.432 10.752-3.754 4.267-5.632 9.216-5.632 14.848 0 7.339 2.219 12.715 6.656 16.128 4.608 3.243 9.984 4.864 16.128 4.864ZM1026.76 330V205.84h15.36l1.53 18.432h.77c5.98-6.144 12.29-11.264 18.95-15.36 6.82-4.096 14.42-6.144 22.78-6.144 13.14 0 22.7 4.096 28.67 12.288 6.15 8.192 9.22 20.224 9.22 36.096V330h-18.69v-76.544c0-11.947-1.96-20.651-5.89-26.112-3.75-5.461-9.98-8.192-18.69-8.192-6.65 0-12.63 1.707-17.92 5.12-5.12 3.243-11 8.192-17.66 14.848V330h-18.43ZM1197.23 387.856c-10.24 0-19.2-1.365-26.88-4.096s-13.65-6.571-17.92-11.52c-4.27-4.949-6.4-10.923-6.4-17.92 0-5.461 1.62-10.667 4.87-15.616 3.24-4.949 7.68-9.301 13.31-13.056v-1.024c-3.07-2.048-5.72-4.693-7.94-7.936-2.05-3.413-3.07-7.509-3.07-12.288 0-5.291 1.45-9.899 4.35-13.824 3.07-3.925 6.15-6.997 9.22-9.216v-1.024c-3.93-3.243-7.6-7.765-11.01-13.568-3.24-5.803-4.86-12.373-4.86-19.712 0-9.045 2.04-16.811 6.14-23.296 4.27-6.656 9.81-11.776 16.64-15.36 7-3.755 14.68-5.632 23.04-5.632 3.41 0 6.57.341 9.47 1.024 3.07.512 5.63 1.195 7.68 2.048h43.01v14.592h-26.37c3.24 3.072 5.89 6.912 7.94 11.52 2.05 4.608 3.07 9.728 3.07 15.36 0 8.875-2.05 16.555-6.14 23.04-3.93 6.315-9.31 11.264-16.13 14.848-6.66 3.584-14.17 5.376-22.53 5.376a47.1 47.1 0 0 1-9.73-1.024 53.644 53.644 0 0 1-9.21-3.328 31.231 31.231 0 0 0-6.15 6.4c-1.53 2.389-2.3 5.376-2.3 8.96 0 4.096 1.53 7.509 4.61 10.24 3.24 2.56 9.04 3.84 17.4 3.84h24.84c14.33 0 25 2.389 32 7.168 7.16 4.608 10.75 12.032 10.75 22.272 0 7.509-2.56 14.507-7.68 20.992-4.95 6.485-12.03 11.691-21.25 15.616-9.22 4.096-20.14 6.144-32.77 6.144Zm2.56-13.312c8.19 0 15.28-1.28 21.25-3.84 6.14-2.56 10.92-5.888 14.34-9.984 3.41-4.096 5.12-8.448 5.12-13.056 0-5.973-2.22-10.155-6.66-12.544-4.27-2.389-10.67-3.584-19.2-3.584h-22.78c-1.88 0-4.27-.171-7.17-.512-2.9-.341-5.81-.853-8.71-1.536-4.78 3.413-8.27 6.997-10.49 10.752-2.05 3.925-3.07 7.765-3.07 11.52 0 6.997 3.32 12.544 9.98 16.64s15.79 6.144 27.39 6.144Zm-3.07-96.768c4.95 0 9.47-1.28 13.57-3.84 4.26-2.56 7.68-6.144 10.24-10.752 2.56-4.608 3.84-9.984 3.84-16.128 0-6.315-1.28-11.691-3.84-16.128-2.39-4.608-5.72-8.107-9.99-10.496-4.09-2.56-8.7-3.84-13.82-3.84-7.68 0-14.25 2.731-19.71 8.192-5.46 5.291-8.19 12.715-8.19 22.272 0 6.144 1.28 11.52 3.84 16.128 2.56 4.608 5.88 8.192 9.98 10.752 4.27 2.56 8.96 3.84 14.08 3.84ZM545.918 333.072c-6.826 0-12.97-1.365-18.432-4.096-5.461-2.731-9.813-6.656-13.056-11.776-3.242-5.291-4.864-11.605-4.864-18.944 0-13.653 6.144-24.064 18.432-31.232 12.459-7.339 32.086-12.459 58.88-15.36 0-5.461-.768-10.752-2.304-15.872-1.365-5.291-4.01-9.472-7.936-12.544-3.754-3.243-9.216-4.864-16.384-4.864-7.509 0-14.506 1.451-20.992 4.352-6.314 2.901-11.861 5.973-16.64 9.216l-7.424-12.8c3.584-2.389 7.851-4.864 12.8-7.424 4.95-2.56 10.411-4.693 16.384-6.4 5.974-1.707 12.288-2.56 18.944-2.56 9.899 0 17.92 2.133 24.064 6.4 6.315 4.267 10.838 10.155 13.568 17.664 2.902 7.509 4.352 16.299 4.352 26.368V330h-15.36l-1.536-15.104h-.768a106.435 106.435 0 0 1-19.456 12.8c-6.997 3.584-14.421 5.376-22.272 5.376Zm4.864-15.104c6.315 0 12.288-1.451 17.92-4.352 5.632-3.072 11.691-7.424 18.176-13.056v-36.352c-14.677 1.707-26.282 4.096-34.816 7.168-8.533 2.901-14.677 6.485-18.432 10.752-3.754 4.267-5.632 9.216-5.632 14.848 0 7.339 2.219 12.715 6.656 16.128 4.608 3.243 9.984 4.864 16.128 4.864ZM431.487 333.072c-15.36 0-27.733-5.632-37.12-16.896-9.216-11.435-13.824-27.477-13.824-48.128 0-13.312 2.475-24.832 7.424-34.56 5.12-9.728 11.776-17.237 19.968-22.528 8.192-5.461 17.067-8.192 26.624-8.192 7.339 0 13.653 1.28 18.944 3.84 5.461 2.56 10.923 6.144 16.384 10.752l-.768-21.504v-48.64h18.432V330h-15.36l-1.536-15.104h-.768c-4.779 4.949-10.496 9.216-17.152 12.8-6.485 3.584-13.568 5.376-21.248 5.376Zm4.096-15.872c5.973 0 11.691-1.451 17.152-4.352 5.461-3.072 10.923-7.509 16.384-13.312v-67.328c-5.632-4.949-11.008-8.448-16.128-10.496-4.949-2.048-10.155-3.072-15.616-3.072-6.997 0-13.397 2.133-19.2 6.4-5.632 4.096-10.155 9.899-13.568 17.408-3.243 7.339-4.864 15.872-4.864 25.6 0 15.189 3.072 27.221 9.216 36.096 6.315 8.704 15.189 13.056 26.624 13.056Z"/></svg>

<svg width="1340" height="480" viewBox="0 0 1340 480" fill="none" xmlns="http://www.w3.org/2000/svg">
<circle cx="120" cy="120" r="40" fill="#979aad"/>
<circle cx="120" cy="120" r="40" fill="#979aad" fill-opacity="0.1"/>
<circle cx="120" cy="240" r="40" fill="#979aad"/>
<circle cx="120" cy="240" r="40" fill="#979aad" fill-opacity="0.1"/>
<circle cx="260" cy="360" r="40" fill="#979aad"/>
<circle cx="260" cy="360" r="40" fill="#979aad" fill-opacity="0.1"/>
<path d="M100 330L138.917 359.041C139.456 359.443 139.445 360.257 138.904 360.655C122.303 372.877 117.106 377.438 100 390" stroke="#979aad" stroke-width="20" stroke-linecap="round"/>
<path d="M100 330L138.917 359.041C139.456 359.443 139.445 360.257 138.904 360.655C122.303 372.877 117.106 377.438 100 390" stroke="#979aad" stroke-opacity="0.1" stroke-width="20" stroke-linecap="round"/>
<rect x="220" y="80" width="80" height="200" rx="40" fill="#979aad"/>
<rect x="220" y="80" width="80" height="200" rx="40" fill="#979aad" fill-opacity="0.1"/>
<path d="M636.758 330V205.84H652.118L653.654 228.624H654.422C658.688 220.773 663.808 214.544 669.782 209.936C675.926 205.157 682.582 202.768 689.75 202.768C692.31 202.768 694.614 203.024 696.662 203.536C698.71 203.877 700.672 204.475 702.55 205.328L698.966 221.712C696.918 221.029 695.04 220.517 693.334 220.176C691.798 219.835 689.75 219.664 687.19 219.664C681.899 219.664 676.352 221.883 670.55 226.32C664.747 230.587 659.627 238.181 655.19 249.104V330H636.758Z" fill="#979aad"/>
<path d="M722.758 330V147.216H740.934V273.68H741.702L796.742 205.84H817.478L776.006 255.504L823.11 330H802.886L765.254 268.56L740.934 297.232V330H722.758Z" fill="#979aad"/>
<path d="M864.982 333.072C860.203 333.072 856.278 332.048 853.206 330C850.304 328.123 848.171 325.307 846.806 321.552C845.44 317.627 844.758 312.848 844.758 307.216V147.216H863.19V308.752C863.19 311.824 863.787 314.043 864.982 315.408C866.176 316.773 867.542 317.456 869.078 317.456C869.59 317.456 870.187 317.456 870.87 317.456C871.552 317.285 872.491 317.115 873.686 316.944L876.246 331.28C874.88 331.792 873.259 332.219 871.382 332.56C869.675 332.901 867.542 333.072 864.982 333.072Z" fill="#979aad"/>
<path d="M934.918 333.072C928.092 333.072 921.948 331.707 916.486 328.976C911.025 326.245 906.673 322.32 903.43 317.2C900.188 311.909 898.566 305.595 898.566 298.256C898.566 284.603 904.71 274.192 916.998 267.024C929.457 259.685 949.084 254.565 975.878 251.664C975.878 246.203 975.11 240.912 973.574 235.792C972.209 230.501 969.564 226.32 965.638 223.248C961.884 220.005 956.422 218.384 949.254 218.384C941.745 218.384 934.748 219.835 928.262 222.736C921.948 225.637 916.401 228.709 911.622 231.952L904.198 219.152C907.782 216.763 912.049 214.288 916.998 211.728C921.948 209.168 927.409 207.035 933.382 205.328C939.356 203.621 945.67 202.768 952.326 202.768C962.225 202.768 970.246 204.901 976.39 209.168C982.705 213.435 987.228 219.323 989.958 226.832C992.86 234.341 994.31 243.131 994.31 253.2V330H978.95L977.414 314.896H976.646C970.673 319.845 964.188 324.112 957.19 327.696C950.193 331.28 942.769 333.072 934.918 333.072ZM939.782 317.968C946.097 317.968 952.07 316.517 957.702 313.616C963.334 310.544 969.393 306.192 975.878 300.56V264.208C961.201 265.915 949.596 268.304 941.062 271.376C932.529 274.277 926.385 277.861 922.63 282.128C918.876 286.395 916.998 291.344 916.998 296.976C916.998 304.315 919.217 309.691 923.654 313.104C928.262 316.347 933.638 317.968 939.782 317.968Z" fill="#979aad"/>
<path d="M1026.76 330V205.84H1042.12L1043.65 224.272H1044.42C1050.4 218.128 1056.71 213.008 1063.37 208.912C1070.19 204.816 1077.79 202.768 1086.15 202.768C1099.29 202.768 1108.85 206.864 1114.82 215.056C1120.97 223.248 1124.04 235.28 1124.04 251.152V330H1105.35V253.456C1105.35 241.509 1103.39 232.805 1099.46 227.344C1095.71 221.883 1089.48 219.152 1080.77 219.152C1074.12 219.152 1068.14 220.859 1062.85 224.272C1057.73 227.515 1051.85 232.464 1045.19 239.12V330H1026.76Z" fill="#979aad"/>
<path d="M1197.23 387.856C1186.99 387.856 1178.03 386.491 1170.35 383.76C1162.67 381.029 1156.7 377.189 1152.43 372.24C1148.16 367.291 1146.03 361.317 1146.03 354.32C1146.03 348.859 1147.65 343.653 1150.9 338.704C1154.14 333.755 1158.58 329.403 1164.21 325.648V324.624C1161.14 322.576 1158.49 319.931 1156.27 316.688C1154.22 313.275 1153.2 309.179 1153.2 304.4C1153.2 299.109 1154.65 294.501 1157.55 290.576C1160.62 286.651 1163.7 283.579 1166.77 281.36V280.336C1162.84 277.093 1159.17 272.571 1155.76 266.768C1152.52 260.965 1150.9 254.395 1150.9 247.056C1150.9 238.011 1152.94 230.245 1157.04 223.76C1161.31 217.104 1166.85 211.984 1173.68 208.4C1180.68 204.645 1188.36 202.768 1196.72 202.768C1200.13 202.768 1203.29 203.109 1206.19 203.792C1209.26 204.304 1211.82 204.987 1213.87 205.84H1256.88V220.432H1230.51C1233.75 223.504 1236.4 227.344 1238.45 231.952C1240.5 236.56 1241.52 241.68 1241.52 247.312C1241.52 256.187 1239.47 263.867 1235.38 270.352C1231.45 276.667 1226.07 281.616 1219.25 285.2C1212.59 288.784 1205.08 290.576 1196.72 290.576C1193.48 290.576 1190.23 290.235 1186.99 289.552C1183.75 288.699 1180.68 287.589 1177.78 286.224C1175.39 288.101 1173.34 290.235 1171.63 292.624C1170.1 295.013 1169.33 298 1169.33 301.584C1169.33 305.68 1170.86 309.093 1173.94 311.824C1177.18 314.384 1182.98 315.664 1191.34 315.664H1216.18C1230.51 315.664 1241.18 318.053 1248.18 322.832C1255.34 327.44 1258.93 334.864 1258.93 345.104C1258.93 352.613 1256.37 359.611 1251.25 366.096C1246.3 372.581 1239.22 377.787 1230 381.712C1220.78 385.808 1209.86 387.856 1197.23 387.856ZM1199.79 374.544C1207.98 374.544 1215.07 373.264 1221.04 370.704C1227.18 368.144 1231.96 364.816 1235.38 360.72C1238.79 356.624 1240.5 352.272 1240.5 347.664C1240.5 341.691 1238.28 337.509 1233.84 335.12C1229.57 332.731 1223.17 331.536 1214.64 331.536H1191.86C1189.98 331.536 1187.59 331.365 1184.69 331.024C1181.79 330.683 1178.88 330.171 1175.98 329.488C1171.2 332.901 1167.71 336.485 1165.49 340.24C1163.44 344.165 1162.42 348.005 1162.42 351.76C1162.42 358.757 1165.74 364.304 1172.4 368.4C1179.06 372.496 1188.19 374.544 1199.79 374.544ZM1196.72 277.776C1201.67 277.776 1206.19 276.496 1210.29 273.936C1214.55 271.376 1217.97 267.792 1220.53 263.184C1223.09 258.576 1224.37 253.2 1224.37 247.056C1224.37 240.741 1223.09 235.365 1220.53 230.928C1218.14 226.32 1214.81 222.821 1210.54 220.432C1206.45 217.872 1201.84 216.592 1196.72 216.592C1189.04 216.592 1182.47 219.323 1177.01 224.784C1171.55 230.075 1168.82 237.499 1168.82 247.056C1168.82 253.2 1170.1 258.576 1172.66 263.184C1175.22 267.792 1178.54 271.376 1182.64 273.936C1186.91 276.496 1191.6 277.776 1196.72 277.776Z" fill="#979aad"/>
<path d="M545.918 333.072C539.092 333.072 532.948 331.707 527.486 328.976C522.025 326.245 517.673 322.32 514.43 317.2C511.188 311.909 509.566 305.595 509.566 298.256C509.566 284.603 515.71 274.192 527.998 267.024C540.457 259.685 560.084 254.565 586.878 251.664C586.878 246.203 586.11 240.912 584.574 235.792C583.209 230.501 580.564 226.32 576.638 223.248C572.884 220.005 567.422 218.384 560.254 218.384C552.745 218.384 545.748 219.835 539.262 222.736C532.948 225.637 527.401 228.709 522.622 231.952L515.198 219.152C518.782 216.763 523.049 214.288 527.998 211.728C532.948 209.168 538.409 207.035 544.382 205.328C550.356 203.621 556.67 202.768 563.326 202.768C573.225 202.768 581.246 204.901 587.39 209.168C593.705 213.435 598.228 219.323 600.958 226.832C603.86 234.341 605.31 243.131 605.31 253.2V330H589.95L588.414 314.896H587.646C581.673 319.845 575.188 324.112 568.19 327.696C561.193 331.28 553.769 333.072 545.918 333.072ZM550.782 317.968C557.097 317.968 563.07 316.517 568.702 313.616C574.334 310.544 580.393 306.192 586.878 300.56V264.208C572.201 265.915 560.596 268.304 552.062 271.376C543.529 274.277 537.385 277.861 533.63 282.128C529.876 286.395 527.998 291.344 527.998 296.976C527.998 304.315 530.217 309.691 534.654 313.104C539.262 316.347 544.638 317.968 550.782 317.968Z" fill="#979aad"/>
<path d="M431.487 333.072C416.127 333.072 403.754 327.44 394.367 316.176C385.151 304.741 380.543 288.699 380.543 268.048C380.543 254.736 383.018 243.216 387.967 233.488C393.087 223.76 399.743 216.251 407.935 210.96C416.127 205.499 425.002 202.768 434.559 202.768C441.898 202.768 448.212 204.048 453.503 206.608C458.964 209.168 464.426 212.752 469.887 217.36L469.119 195.856V147.216H487.551V330H472.191L470.655 314.896H469.887C465.108 319.845 459.391 324.112 452.735 327.696C446.25 331.28 439.167 333.072 431.487 333.072ZM435.583 317.2C441.556 317.2 447.274 315.749 452.735 312.848C458.196 309.776 463.658 305.339 469.119 299.536V232.208C463.487 227.259 458.111 223.76 452.991 221.712C448.042 219.664 442.836 218.64 437.375 218.64C430.378 218.64 423.978 220.773 418.175 225.04C412.543 229.136 408.02 234.939 404.607 242.448C401.364 249.787 399.743 258.32 399.743 268.048C399.743 283.237 402.815 295.269 408.959 304.144C415.274 312.848 424.148 317.2 435.583 317.2Z" fill="#979aad"/>
</svg>
